svgs/duotone/code-compare.svg

<svg xmlns="http://www.w3.org/2000/svg" viewBox="0 0 512 512"><!--! Font Awesome Pro 6.4.0 by @fontawesome - https://fontawesome.com License - https://fontawesome.com/license (Commercial License) Copyright 2023 Fonticons, Inc. --><defs><style>.fa-secondary{opacity:.4}</style></defs><path class="fa-primary" d="M408 80a24 24 0 1 1 48 0 24 24 0 1 1 -48 0zm104 0A80 80 0 1 0 352 80a80 80 0 1 0 160 0zM104 432a24 24 0 1 1 -48 0 24 24 0 1 1 48 0zM0 432a80 80 0 1 0 160 0A80 80 0 1 0 0 432z"/><path class="fa-secondary" d="M400 153.3c9.8 4.3 20.6 6.7 32 6.7s22.2-2.4 32-6.7V320c0 70.7-57.3 128-128 128H320v40c0 9.5-5.6 18.1-14.2 21.9s-18.8 2.3-25.8-4.1l-80-72c-5.1-4.6-7.9-11-7.9-17.8s2.9-13.3 7.9-17.8l80-72c7-6.3 17.2-7.9 25.8-4.1s14.2 12.4 14.2 21.9v40h16c35.3 0 64-28.7 64-64V153.3zM112 358.7c-9.8-4.3-20.6-6.7-32-6.7s-22.2 2.4-32 6.7V192c0-70.7 57.3-128 128-128h16V24c0-9.5 5.6-18.1 14.2-21.9s18.8-2.3 25.8 4.1l80 72c5.1 4.6 7.9 11 7.9 17.8s-2.9 13.3-7.9 17.8l-80 72c-7 6.3-17.2 7.9-25.8 4.1s-14.2-12.4-14.2-21.9V128H176c-35.3 0-64 28.7-64 64V358.7z"/></svg>

<svg xmlns="http://www.w3.org/2000/svg" viewBox="0 0 512 512"><!--! Font Awesome Pro 6.3.0 by @fontawesome - https://fontawesome.com License - https://fontawesome.com/license (Commercial License) Copyright 2023 Fonticons, Inc. --><defs><style>.fa-secondary{opacity:.4}</style></defs><path class="fa-primary" d="M432 160C387.8 160 352 124.2 352 80C352 35.82 387.8 0 432 0C476.2 0 512 35.82 512 80C512 124.2 476.2 160 432 160zM456 80C456 66.75 445.3 56 432 56C418.7 56 408 66.75 408 80C408 93.25 418.7 104 432 104C445.3 104 456 93.25 456 80zM80 352C124.2 352 160 387.8 160 432C160 476.2 124.2 512 80 512C35.82 512 0 476.2 0 432C0 387.8 35.82 352 80 352zM56 432C56 445.3 66.75 456 80 456C93.25 456 104 445.3 104 432C104 418.7 93.25 408 80 408C66.75 408 56 418.7 56 432z"/><path class="fa-secondary" d="M232.1 6.162L312.1 78.16C317.1 82.71 320 89.2 320 96C320 102.8 317.1 109.3 312.1 113.8L232.1 185.8C225 192.2 214.9 193.8 206.2 189.9C197.6 186.1 192 177.5 192 168V128H176C140.7 128 112 156.7 112 192V358.7C102.2 354.4 91.38 352 80 352C68.62 352 57.8 354.4 48 358.7V192C48 121.3 105.3 64 176 64H192V24C192 14.52 197.6 5.932 206.2 2.076C214.9-1.78 225-.1789 232.1 6.161V6.162zM320 488C320 497.5 314.4 506.1 305.8 509.9C297.1 513.8 286.1 512.2 279.9 505.8L199.9 433.8C194.9 429.3 192 422.8 192 416C192 409.2 194.9 402.7 199.9 398.2L279.9 326.2C286.1 319.8 297.1 318.2 305.8 322.1C314.4 325.9 320 334.5 320 344V384H336C371.3 384 400 355.3 400 320V153.3C409.8 157.6 420.6 160 432 160C443.4 160 454.2 157.6 464 153.3V320C464 390.7 406.7 448 336 448H320V488z"/></svg>
